X: 43644
T: Zelda
R: jig
M: 6/8
K: Bminor
|:f2B f2B|gfe f3|fed c2B|cde d2B|
f2B f2B|gfe f3|fed c2B|cdc B3:|
|:Bcd F3|Bcd G3|Bcd c2B|edc d2B|
Bcd F3|Bcd G3|Bcd c2d|edc B3:|

